X: 16822
T: Hartigan's Leaving
R: reel
M: 4/4
K: Dminor
|:G|Adde fdec|Acec fcec|Adde fdec|ABAG FEFG|
Adde fdec|Acec fcec|Addc ABAG|FAGE FDD:|

